                         	(LEAVE THIS LINE BLANK)
%                               (ALL PROGRAMS WRITTEN FOR THE MORI SEIKI NV4000 REQUIRE A "%" SYMBOL ON THE SECOND LINE OF THE FILE)
O4321				(ALL PROGRAMS BEGIN WITH LETTER "O" AND THE LAST FOUR DIGITS OF YOUR GROUP LEADER'S SID)
N100
N110            		(MORI SEIKI NV4000 FORMAT TEMPLATE FOR MECH3660 8660 9660 2020)
	                                   (GABRIEL RALPH 470205736)
N140
N150 G21			(METRIC UNITS)
N160
N170 G90G80G40G17G94G00		(G90=ABSOLUTE PROGRAMMING, G80=CANCEL CANNED CYCLE, G40=CANCEL CUTTER COMP, G17=XY PLANE, G94=FEED PER MINUTE, G00=RAPID TRAVERSE)
N180
N190 G91G28Z0			(G91=INCREMENTAL PROGRAMMING, G28=RETURN TO MACHINE HOME ON "Z" AXIS FIRST)
N200 G91G28Y0			(INCREMENTAL PROGRAMMING, RETURN TO MACHINE HOME ON "Y" AXIS SECOND)
N210
N220 T4 			(T4=10mm  DIA. LONG SERIES SLOT DRILL)
N230
N240 M06 			(TOOL CHANGE)
N250 M01 			(OPTIONAL STOP FOR INSPECTION/MEASUREMENT)
N260 S12000 			(SPINDLE SPEED 12000 RPM)
N270 M03			(SPINDLE MOTOR ON CW)
N280 M08 			(COOLANT ON)
N290 G90 			(ABSOLUTE PROGRAMMING)
N300 G54 			(WORK COORDINATE SYSTEM 1 SELECTED)
N310 (Z0 SHOULD BE THE TOP OF THE BLOCK SUCH THAT -59 WILL BE THE BOTTOM OF THE BLOCK)
N320 (Hole top left D10)
N330 G00 Z1
N340 G00 X-43.84 Y43.84
N350 G01 Z-59 F70
N360
N370(Hole bottom left D10)
N380 G00 Z1
N390 G00 X-43.84 Y-43.84
N400 G01 X-43.84 Y-43.84 Z-59
N410
N420 (Hole top right D10)
N430 G00 Z1
N440 G00 X56 Y32
N450 G01 X56 Y32 Z-59
N460
N470 (Hole bottom right D10)
N480 G00 Z1
N490 G00 X32 Y-56
N500 G01 X32 Y-56 Z-59
N501
N502 (Hole to right D16)
N503 G00 Z1
N504 G00 X61 Y-20
N505 G01 Z-59
N506 G02 X64 Y-17 R3 F170
N507 G02 X67 Y-20 R3
N508 G02 X64 Y-23 R3
N509 G02 X61 Y-20 R3
N510
N520 (Path 1.1)
N530 G00 Z1
N540 G00 X-24.45 Y39.2
N550 G01 Z-3 F70
N560 G01 X24.45 Y39.2 F170
N580 G02 X46.2 Y0 R46.2
N570 G02 X0 Y-46.2 R46.2
N570 G02 X-46.2 Y0 R46.2
N580 G02 X-24.45 Y39.2 R46.2
N590 G01 X-21.66 Y30
N600 G01 X21.66 Y30
N610 G02 X37 Y0 R37
N610 G02 X0 Y-37 R37
N610 G02 X-37 Y0 R37
N620 G02 X-21.66 Y30 R37
N630
N631 (Center Hole D32)
N632 G00 Z1
N633 G00 X-11 Y0
N634 G01 Z-58.5 F70 (Leave 0.5mm material in Z-axis as support)
N635 G02 X0 Y11 R11 F170
N636 G02 X11 Y0 R11
N637 G02 X0 Y-11 R11
N638 G02 X-11 Y0 R11
N639
N640 (Center Hole D44)
N650 G00 Z1
N660 G00 X-17 Y0
N670 G01 X-17 Y0 Z-13 F70
N680 G02 X0 Y17 R17 F170
N690 G02 X17 Y0 R17
N700 G02 X0 Y-17 R17
N710 G02 X-17 Y0 R17
N720 (Path 2.1)
N730 G00 Z1
N740 G00 X-43.30 Y30
N750 G01 Z-27 F70
N760 G01 X34.08 Y30 F170
N770 G03 X0 Y45.4 R45.4
N770 G03 X-34.08 Y30 R45.4
N780 G02 X34.08 Y30 R79.25
N790 G01 X46.1 Y30
N800 G02 X37.82 Y-39.93 R55
N810 G03 X54.19 Y-51.4 R32.9
N810 G03 X95.4 Y-29.81 R32.9
N810 G03 X73.81 Y11.4 R32.9
N820 G03 X53.83 Y11.29 R32.9
N830 G02 X54.97 Y1.91 R55
N840 G02 X71.07 Y2.62 R23.7
N840 G02 X86.62 Y-27.07 R23.7
N840 G02 X56.93 Y-42.62 R23.7
N850 G02 X44.1 Y-32.87 R23.7
N860 G03 X49.86 Y-23.21 R55
N870 G03 X59.68 Y-33.84 R14.5
N870 G03 X77.84 Y-24.32 R14.5
N880 G03 X68.32 Y-6.16 R14.5
N880 G03 X54.21 Y-9.31 R14.5
N890 G01 X58.77 Y-12.07
N900 G02 X66.84 Y-10.93 R9.5
N900 G02 X73.07 Y-22.83 R9.5
N910 G02 X61.17 Y-29.07 R9.5
N910 G02 X55.19 Y-23.55 R9.5
N920 G00 X37.82 Y-39.93
N930 G02 X29.54 Y-46.39 R55
N940
N950 (Path 3.1)
N960 G00 Z1
N970 G00 X-44.22 Y-32.71
N980 G01 Z-53 F70
N990 G02 X-32.71 Y44.22 R55 F170
N1000 G02 X-35.98 Y46.45 R10.6
N1010 G01 X-38.61 Y49.07
N1020 G03 X-49.07 Y49.07 R7.4
N1030 G03 X-49.07 Y38.61 R7.4
N1040 G01 X-46.45 Y35.98
N1050 G02 X-44.22 Y32.71 R10.4
N1060 G02 X0 Y55 R55
N1060 G02 X43.77 Y33.31 R55
N1070 G03 X50.42 Y36.86 R10.6
N1080 G02 X59.53 Y38.51 R7.4
N1080 G02 X63.12 Y29.98 R7.4
N1090 G03 X63.76 Y22.5 R10.6
N1100 G01 X43.77 Y33.31
N1110 G02 X50.7 Y21.31 R55
N1120 G03 X51.91 Y20.74 R1
N1130 G02 X76.68 Y20.67 R42.5
N1130 G02 X104.57 Y-32.68 R42.5
N1140 G02 X41.75 Y-56.21 R42.5
N1150 G03 X38.39 Y-59.74 R10.4
N1160 G02 X30.73 Y-63.29 R7.4
N1160 G02 X24.73 Y-57.36 R7.4
N1170 G03 X20.79 Y-50.92 R10.4
N1180 G01 X41.75 Y-56.21
N1190 G02 X30.86 Y-46.61 R42.5
N1200 G03 X29.54 Y-46.39 R1
N1210 G02 X-44.22 Y-32.71 R55
N1220 G02 X-46.45 Y-35.98 R10.4
N1230 G01 X-49.07 Y-38.61
N1240 G03 X-49.07 Y-49.07 R7.4
N1250 G03 X-38.61 Y-49.07 R7.4
N1260 G01 X-35.98 Y-46.45
N1270 G02 X-32.71 Y-44.22 R10.4
N1280
N1290 (Path 4.1)
N1300 (Outline of the entire gearbox)
N1301 G00 Z1
N1302 G00 X-53.06 Y-28.02
N1310 G01 Z-59 F50
N1320 G02 X-53.06 Y28.02 R60
N1330 G03 X-53.23 Y29.19 R1
N1340 G01 X-55.86 Y31.82
N1350 G02 X-55.86 Y55.86 R17
N1360 G02 X-31.82 Y55.86 R17
N1370 G01 X-29.19 Y53.23
N1380 G03 X-28.02 Y53.06 R1
N1390 G02 X41.73 Y43.11 R60
N1400 G03 X43.18 Y43.17 R1
N1410 G02 X64.1 Y46.95 R17
N1420 G02 X72.35 Y27.36 R17
N1430 G03 X73.12 Y26.11 R1
N1440 G02 X108.86 Y-34.02 R47
N1450 G02 X47.88 Y-64.15 R47
N1460 G03 X46.67 Y-64.58 R1
N1470 G02 X29.08 Y-72.75 R17
N1480 G02 X15.29 Y-59.12 R17
N1490 G03 X14.07 Y-58.33 R1
N1500 G02 X-28.02 Y-53.06 R60
N1510 G03 X-29.19 Y-53.23 R1
N1520 G01 X-31.82 Y-55.86
N1530 G02 X-55.86 Y-55.86 R17
N1530 G02 X-55.86 Y-31.82 R17
N1531 G01 X-53.23 Y-29.19
N1532 G03 X-53.06 Y-28.02 R1

N1540
N1550 M09 		        (COOLANT OFF)
N1560 M05 		        (SPINDLE MOTOR OFF)
N1570 G91G28Z0 		        (INCREMENTAL PROGRAMMING, RETURN TO MACHINE HOME ON "Z" AXIS FIRST)
N1580 G91G28Y0 		        (INCREMENTAL PROGRAMMING, RETURN TO MACHINE HOME ON "Y" AXIS SECOND)
N1590 			        (RETURN TO MACHINE HOME ON "X" AXIS NOT REQUIRED)
N1600 M30		        (END OF PROGRAM SETUP FOR REPEAT OPERATION)
